X:1
T:Belle Ninfe
T:Belle Ninfe
T:Gio.Girolamo Kapsperger
C:Gio.Girolamo Kapsperger
%%score [ 1 2 ] { 3 | 4 }
L:1/8
Q:1/4=120
M:4/4
K:C
V:1 treble nm="Soprano 1" snm="S 1"
V:2 treble nm="Soprano 2" snm="S 2"
V:3 treble nm="BC" snm="BC"
V:4 bass 
V:1
 z4 z2 Bc |:S d3 e/d/ c3 d/c/ | B2 B2 z2 de | c2 B4 BA |1 G2 G2 z2 Bc :|2 G2 G2 z2 G^G |: %6
w: Bel- le|Nin- fe'al _ pra- to'al _|pra- to, non tar-|da- t'ec- co l'au-|ro- ra, Bel- le|ro- ra. Non sen-|
w: |to- ri'al _ bos- co'al _|bos- co, gia l'Au-|ro- ra'in- a- ba'il|Cie- lo, Cac- cia-|Cie- lo. E ne|
w: |rel- li'al- _ fon- te'al _|fon- te, non sen-|ti- te'il cal- do'es-|ti- vo, Pa- sto-|ti- vo. La ba-|
w: |ni- te'all'- _ om- br'al- *|lom- bra, fra quei|pla- ta- ni fron-|do- si, Deh ve-|do- si, ver- de|
w: |to- ri'ai _ li- di'ai _|li- di, con le|nas- te,e con le|re- ti, Pes- ca-|re- ti, e cer-|
 A3 B c3 d | B2 B2 z2 A^G | A3 B B3 ^c | A2 A2 z2 ^cd | eABc dA d>e | c3 B B3 A |1 G2 G2 z2 G^G :|2 %13
w: ti- te'il fres- co|fia- to, on- de|Zef- fi- ro'in- na-|mo- ra, la di|fron- d'e fior no- vel- l'in- gem- ma-|te i bei ca-|pel- li, non sen-|
w: sgom- bra l'a- er|fo- sco, e ri-|chia- ma'il Dio di|De- lo, sa- et-|ta- te'o- mai le bel- ve fe- steg-|gia- te per le|sel- ve, e ne|
w: gna- te'il se- no'e'l|fron- te, ri- ba-|cian- do'il fres- co|ri- vo, et al|suon de bei cri- stal- li in- trec-|cia- te'i dol- ci|bal- li, la ba-|
w: Ciel la val- le'a-|dom- bra, e'n in-|vi- t'a bei ri-|po- si, con la|li- ra'e con gl'ac- cen- ti ral- le-|gra- te'a vo- stri'ar-|men- ti, ver- de|
w: can- do'i fal- si|ni- di del- la|va- ga'on- do- sa|Te- thi, se di|pre- da'il- le- gno'a- bon- da ral- le-|gra- te'il Cie- lo'e|l'on- da, e cer-|
 G2 G2 z2 Bc!D.S.! ||"^Al Fine" G4 G4 |] %15
w: pel- li. Cac- cia-||
w: sel- ve. Pa- sto-||
w: bal- li. Deh ve-||
w: men- ti. Pes- ca-||
w: |l'on- da.|
V:2
 z4 z2 GA |: B3 c/B/ A3 B/A/ | G2 G2 z2 Bc | A2 G4 G^F |1 G2 G2 z2 GA :|2 G2 G2 z2 ED |: %6
w: Bel- le|Nin- fe'al _ pra- to'al _|pra- to, non tar-|da- t'ec- co l'au-|ro- ra, Bel- le|ro- ra. Non sen-|
w: |to- ri'al- _ bos- co'al _|bos- co, gia l'Au-|ro- ra'in- a- ba'il|Cie- lo, Ca- cia-|Cie- lo. E ne|
w: |rel- li'al _ fon- te'al _|fon- te, non sen-|ti- te'il cal- do'es-|ti- vo, Pa- sto-|ti- vo. La ba-|
w: |ni- te'all' _ om- br'al _|lom- bra, fra quei|pla- ta- ni fron-|do- si, Deh ve-|do- si, ver- de|
w: |to- ri'ai _ li- di'ai _|li- di, con le|nas- te,e con le|re- ti, Pes- ca-|re- ti, e cer-|
 E3 E E3 A | D2 D2 z2 DE | F3 G A3 ^G | A2 A2 z2 AA | A^FGG FF B>c | A3 G G3 ^F |1 G2 G2 z2 ED :|2 %13
w: ti- te'il fres- co|fia- to, on- de|Zef- fi- ro'in- na-|mo- ra, la di|fron- d'e fior no- vel- l'in- gem- ma|te i bei ca-|pel- li, non sen-|
w: sgom- bra l'a- er|fo- sco, e ri-|chia- ma'il Dio di|De- lo, sa- et-|ta- te'o- mai le be- ve fe- steg-|gia- te per le|sel- ve, e ne|
w: gna- te'il se- no'il|fron- te, ri- ba-|cian- do'il fres- co|ri- vo, et al|suon de bei cri- stal- li in- trec-|cia- te'i- dol- ci|bal- li, la ba-|
w: Ciel la val- le'a-|dom- bra, e'n in-|vi- t'a bei ri-|po- si, con la|li- ra'e con gl'ac- cen- ti ral- le|gra- te'a vo- stri'ar-|men- ti, ver- de|
w: can- do'i fal- si|ni- di, del- la|va- ga'on- do- sa|Te- thi, se di|pre- da'il le- gno'a- bon- da ral- le-|gra- te'il Cie- lo'e|l'on- da, e cer|
 G2 G2 z2 GA || G4 G4 |] %15
w: pel- li. Cac- cia-||
w: sel- ve. Pa- sto-||
w: bal- li. Deh ve-||
w: men- ti. Pes- ca-||
w: |l'on- da.|
V:3
 z4 z2 [GBd]2 |: [DB]3 [EG] [Ac]3 [Ad] | [GB]6 [Gd]2 | [EGc]2 [DGB]4 [^FA]2 |1 [GBd]6 [DB]2 :|2 %5
 [GBd]6 [EG]D |: [Ec]3 [EB] [EA]3 [DA] | [DGB]6 [FA][E^G] | [FA]4 A3 ^G | [EAc]6 [EA]2 | %10
 [DAd]2 [GB]2 [FA]2 [DG]2 | [Ec]2 [GB]2 [EG]2 [^FA]2 |1 [DGB]6 [EG]D :|2 [GBd]6 [DB]2 || %14
"^Al fine" [GBd]8 |] %15
V:4
 z4 z2 G,2 |: G,3 C, F,3 D, | E,4 E,2 B,,2 | C,2 G,,2 D,4 |1 G,,6 G,2 :|2 G,,6 CB, |: %6
 A,3 ^G, A,3 ^F, | G,6 F,E, | D,4 [E,B,]4 | A,,6 A,2 | ^F,2 G,E, D,2 B,,2 | C,2 G,,2 C,2 D,2 |1 %12
 G,,4 z2 CB, :|2 G,4 z2 G,2 || G,8 |] %15

